svgs/apk_editor.svg

<svg xmlns="http://www.w3.org/2000/svg" viewBox="0 0 192 192"><path d="M79.912 56.613a5.637 5.637 0 0 1-3.543-1.217 5.58 5.58 0 0 1-1.986-3.162 5.556 5.556 0 0 1 .457-3.699 5.61 5.61 0 0 1 2.695-2.591 5.655 5.655 0 0 1 3.734-.33 5.623 5.623 0 0 1 3.113 2.078 5.564 5.564 0 0 1-.602 7.351 5.638 5.638 0 0 1-3.868 1.57Zm32.541 0a5.64 5.64 0 0 1-3.544-1.217 5.562 5.562 0 0 1-1.529-6.861 5.616 5.616 0 0 1 2.696-2.591 5.655 5.655 0 0 1 3.734-.33 5.627 5.627 0 0 1 3.113 2.078 5.564 5.564 0 0 1-.602 7.351 5.638 5.638 0 0 1-3.868 1.57Z" fill="none" stroke="#000" stroke-width="8" stroke-linecap="round" stroke-linejoin="round"/><path d="M56.055 71.105v-9.086a39.437 39.437 0 0 1 5.37-19.859 39.747 39.747 0 0 1 14.662-14.508 40.05 40.05 0 0 1 20.004-5.246c6.996 0 13.869 1.83 19.927 5.307a39.733 39.733 0 0 1 14.587 14.5 39.426 39.426 0 0 1 5.34 19.806v9.086M61.722 16.5l10.055 12.266M130.552 16.5l-10.329 12.266" fill="none" stroke="#000" stroke-width="8" stroke-linecap="round" stroke-linejoin="round"/><path d="M35.443 59.657V143.7a12.744 12.744 0 0 0 3.693 7.686 12.888 12.888 0 0 0 7.733 3.671h93.692V93.729h4.57a12.894 12.894 0 0 0 7.733-3.671 12.75 12.75 0 0 0 3.693-7.687 12.744 12.744 0 0 0-3.693-7.686 12.894 12.894 0 0 0-7.733-3.671H46.869a12.883 12.883 0 0 1-7.733-3.671 12.744 12.744 0 0 1-3.693-7.686 12.744 12.744 0 0 1 3.693-7.686 12.888 12.888 0 0 1 7.733-3.671h11.197" fill="none" stroke="#000" stroke-width="8" stroke-linecap="round" stroke-linejoin="round"/><path d="M140.561 155.057V175.5h4.57a12.888 12.888 0 0 0 7.733-3.671 12.744 12.744 0 0 0 3.693-7.686V82.371M96 96c-2.423 0-4.75.958-6.464 2.661a9.064 9.064 0 0 0-2.677 6.425c0 2.409.964 4.721 2.677 6.424A9.172 9.172 0 0 0 96 114.172c2.423 0 4.75-.958 6.464-2.662a9.061 9.061 0 0 0 2.677-6.424 9.064 9.064 0 0 0-2.677-6.425A9.176 9.176 0 0 0 96 96Zm-.001-1.305v-8.822" fill="none" stroke="#000" stroke-width="8" stroke-linecap="round" stroke-linejoin="round"/><path d="m123.422 170.957-27.423-56.786-27.421 56.786" fill="none" stroke="#000" stroke-width="8" stroke-linecap="round" stroke-linejoin="round"/></svg>

<svg
    xmlns="http://www.w3.org/2000/svg"
    viewBox="0 0 192 192"
    id="vector">
    <path
        id="path"
        d="M 79.912 56.613 C 78.626 56.623 77.375 56.193 76.369 55.396 C 75.362 54.599 74.661 53.483 74.383 52.234 C 74.105 50.986 74.266 49.68 74.84 48.535 C 75.413 47.391 76.365 46.476 77.535 45.944 C 78.705 45.413 80.023 45.296 81.269 45.614 C 82.515 45.932 83.615 46.666 84.382 47.692 C 85.15 48.718 85.54 49.975 85.488 51.253 C 85.43 52.687 84.818 54.045 83.78 55.043 C 82.742 56.041 81.356 56.603 79.912 56.613 Z M 112.453 56.613 C 111.167 56.623 109.915 56.193 108.909 55.396 C 107.903 54.599 107.202 53.483 106.924 52.234 C 106.646 50.986 106.807 49.68 107.38 48.535 C 107.954 47.391 108.906 46.476 110.076 45.944 C 111.246 45.413 112.564 45.296 113.81 45.614 C 115.056 45.932 116.155 46.666 116.923 47.692 C 117.691 48.718 118.081 49.975 118.029 51.253 C 117.971 52.687 117.359 54.045 116.321 55.043 C 115.283 56.041 113.897 56.603 112.453 56.613 Z"
        fill="none"
        stroke="#000000"
        stroke-width="8"
        stroke-linecap="round"
        stroke-linejoin="round"/>
    <path
        id="path_1"
        d="M 56.055 71.105 L 56.055 62.019 C 56.055 55.046 57.908 48.194 61.425 42.16 C 64.942 36.126 70.001 31.121 76.087 27.652 C 82.174 24.184 89.076 22.374 96.091 22.406 C 103.087 22.406 109.96 24.236 116.018 27.713 C 122.076 31.19 127.108 36.191 130.605 42.213 C 134.103 48.234 135.945 55.066 135.945 62.019 L 135.945 71.105 M 61.722 16.5 L 71.777 28.766 M 130.552 16.5 L 120.223 28.766"
        fill="none"
        stroke="#000000"
        stroke-width="8"
        stroke-linecap="round"
        stroke-linejoin="round"/>
    <path
        id="path_2"
        d="M 35.443 59.657 L 35.443 143.7 C 35.753 146.606 37.057 149.32 39.136 151.386 C 41.215 153.452 43.945 154.749 46.869 155.057 L 140.561 155.057 L 140.561 93.729 L 145.131 93.729 C 148.055 93.42 150.785 92.124 152.864 90.058 C 154.943 87.991 156.247 85.277 156.557 82.371 C 156.247 79.465 154.943 76.751 152.864 74.685 C 150.785 72.619 148.055 71.323 145.131 71.014 L 46.869 71.014 C 43.945 70.706 41.215 69.41 39.136 67.343 C 37.057 65.277 35.753 62.563 35.443 59.657 C 35.753 56.751 37.057 54.037 39.136 51.971 C 41.215 49.905 43.945 48.608 46.869 48.3 L 58.066 48.3"
        fill="none"
        stroke="#000000"
        stroke-width="8"
        stroke-linecap="round"
        stroke-linejoin="round"/>
    <path
        id="path_3"
        d="M 140.561 155.057 L 140.561 175.5 L 145.131 175.5 C 148.055 175.192 150.785 173.895 152.864 171.829 C 154.943 169.763 156.247 167.049 156.557 164.143 L 156.557 82.371 M 96 96 C 93.577 96 91.25 96.958 89.536 98.661 C 87.823 100.364 86.859 102.677 86.859 105.086 C 86.859 107.495 87.823 109.807 89.536 111.51 C 91.25 113.214 93.577 114.172 96 114.172 C 98.423 114.172 100.75 113.214 102.464 111.51 C 104.177 109.807 105.141 107.495 105.141 105.086 C 105.141 102.677 104.177 100.364 102.464 98.661 C 100.75 96.958 98.423 96 96 96 Z M 95.999 94.695 L 95.999 85.873"
        fill="none"
        stroke="#000000"
        stroke-width="8"
        stroke-linecap="round"
        stroke-linejoin="round"/>
    <path
        id="path_4"
        d="M 123.422 170.957 L 95.999 114.171 L 68.578 170.957"
        fill="none"
        stroke="#000000"
        stroke-width="8"
        stroke-linecap="round"
        stroke-linejoin="round"/>
</svg>
